X: 1
M: 3/4
L: 1/8
K: Am
EGA \
| "Am"c4 A2 | A3 EGA | c4 A2 | A4 A2 \
| "F"a4 a2 | "G"g4 a2 | "Am"e6- | e4 e2 |
| "F"a4 a2 | "G"g4 [a2f2] | "Am"e3 fed | "Dm"A4 AB \
| "Am"c2 B2 A2 | "E7"e4 [e2E2] | "Am"A6- | A3 |]
|: zA2 \
| "E7"B6 | B2 c2 d2 | "Am"cB A4- | A4 e2 \
| "Dm"f3 efg | a2 g2 f2 | "Am"e6- | e4 e2 |
| "Dm"f3 efg | a2 g2 f2 | "Am"e4 [e2c2] | "Dm"A4 AB \
| "Am"c2 B2 A2 | "E7"e4 [e2E2] | "Am"A6- | A3 :|

